X: 16064
T: Green Fields Of Glentown, The
R: reel
M: 4/4
K: Adorian
|:G|~A2EA cA~A2|aged bage|dB~B2 GABd|gfdc Bgfg|
eA~A2 fedB|AE~E2 DG,B,G,|A,E~E2 ~E2DE|GEDB, B,A,A,:|

